X:449
T: Schwur und Treue (164), S.358
N: T0337
O: Luxemburg
S: Singendes Volk, Esch-Alzette, 1937 posth.]
N: Straen, fff Witry, 13.12.1932
R: Abschieds- und Wanderlieder, Heimatlieder,  Liebeslied]
M: 3/4
L: 1/16
K: Eb
E2G2 | B6G2c2B2 | B4A4
A2G2 | F4B4=ABcB | G4z4
E2G2 | B6G2c2B2 | B4A4
A2G2 | F4B4=ABcB | GBe3dcB
A2G2 | F4B4=ABcB | G4z4

@@@ Tune index: 8503
